assets/svg/ic_delete.svg

<svg height="64" viewBox="0 0 1024 1024" width="64" xmlns="http://www.w3.org/2000/svg"><path d="m631.467 727.467a34.133 34.133 0 0 1 -68.267 0v-298.667a34.133 34.133 0 1 1 68.267 0zm-170.667 0a34.133 34.133 0 0 1 -68.267 0v-298.667a34.133 34.133 0 0 1 68.267 0zm-204.8-435.2 42.667 571.733a42.667 42.667 0 0 0 42.666 38.4h341.334a42.667 42.667 0 0 0 42.666-37.547q26.454-384 42.667-572.16zm384-68.267v-26.88a75.52 75.52 0 0 0 -75.52-75.52h-107.093a75.52 75.52 0 0 0 -73.387 75.52v26.88zm68.267 0h187.733a34.133 34.133 0 1 1 0 68.267h-61.013q-14.507 188.586-42.667 576.853a109.653 109.653 0 0 1 -109.653 101.547h-343.467a109.653 109.653 0 0 1 -109.227-101.12l-42.666-576.854h-59.307a34.133 34.133 0 0 1 0-68.266h185.6v-27.307a143.787 143.787 0 0 1 143.787-143.787h109.653a143.787 143.787 0 0 1 143.787 143.787z" fill="#515151"/></svg>

<?xml version="1.0" standalone="no"?><!DOCTYPE svg PUBLIC "-//W3C//DTD SVG 1.1//EN" "http://www.w3.org/Graphics/SVG/1.1/DTD/svg11.dtd"><svg t="1636460375827" class="icon" viewBox="0 0 1024 1024" version="1.1" xmlns="http://www.w3.org/2000/svg" p-id="1416" xmlns:xlink="http://www.w3.org/1999/xlink" width="64" height="64"><defs><style type="text/css"></style></defs><path d="M631.467 727.467a34.133 34.133 0 0 1-68.267 0V428.8a34.133 34.133 0 1 1 68.267 0z m-170.667 0a34.133 34.133 0 0 1-68.267 0V428.8a34.133 34.133 0 0 1 68.267 0zM256 292.267L298.667 864a42.667 42.667 0 0 0 42.666 38.4h341.334a42.667 42.667 0 0 0 42.666-37.547q26.454-384 42.667-572.16zM640 224v-26.88a75.52 75.52 0 0 0-75.52-75.52H457.387A75.52 75.52 0 0 0 384 197.12V224z m68.267 0H896a34.133 34.133 0 1 1 0 68.267h-61.013Q820.48 480.853 792.32 869.12a109.653 109.653 0 0 1-109.653 101.547H339.2a109.653 109.653 0 0 1-109.227-101.12l-42.666-576.854H128a34.133 34.133 0 0 1 0-68.266h185.6V197.12A143.787 143.787 0 0 1 457.387 53.333H567.04A143.787 143.787 0 0 1 710.827 197.12z" p-id="1417" fill="#515151"></path></svg>
